icon-themes/breeze_svg/cmd/lc_printdefault.svg

<svg viewBox="0 0 24 24" xmlns="http://www.w3.org/2000/svg"><path d="m6 4v1 4h-2v1 7h1 3v2 1h8v-3h1v-3h-1-9v2h-2v-6h14v3 1h1v-1-3-1h-2v-4-1zm1 1h10v4h-1v-1h-8v1h-1zm1 1v1h8v-1zm-2 5v1h3v-1zm3 6h6v2h-6z" fill="#4d4d4d"/><path d="m18 15v5l3-2.5z" fill="#1d99f3"/></svg>

<svg xmlns="http://www.w3.org/2000/svg" viewBox="0 0 24 24">
 <path 
     style="fill:#4d4d4d" 
     d="M 6 4 L 6 5 L 6 9 L 4 9 L 4 10 L 4 17 L 5 17 L 8 17 L 8 19 L 8 20 L 16 20 L 16 17 L 17 17 L 17 14 L 16 14 L 7 14 L 7 16 L 5 16 L 5 10 L 19 10 L 19 13 L 19 14 L 20 14 L 20 13 L 20 10 L 20 9 L 18 9 L 18 5 L 18 4 L 6 4 z M 7 5 L 17 5 L 17 9 L 16 9 L 16 8 L 8 8 L 8 9 L 7 9 L 7 5 z M 8 6 L 8 7 L 16 7 L 16 6 L 8 6 z M 6 11 L 6 12 L 9 12 L 9 11 L 6 11 z M 9 17 L 15 17 L 15 19 L 9 19 L 9 17 z "
     />
 <path 
     style="fill:#1d99f3" 
     d="M 18 15 L 18 20 L 21 17.5 L 18 15 z "
     />
 </svg>
